!!!COM: Palestrina, Giovanni Perluigi da
!!!OPR: Missa Salve regina
!!!OMD: Gloria
!!!OTL: coda
**kern	**kern	**kern	**kern	**kern
*Ibass	*Itenor	*Icalto	*Icalto	*Icant
!Bassus	!Tenor	!Altus 2	!Altus 1	!Cantus
*clefF4	*clefGv2	*clefG2	*clefG2	*clefG2
*k[b-]	*k[b-]	*k[b-]	*k[b-]	*k[b-]
*G:dor	*G:dor	*G:dor	*G:dor	*G:dor
*M3/2	*M3/2	*M3/2	*M3/2	*M3/2
=122	=122	=122	=122	=122
2G	1r	2g	2b-	2dd
2A	.	2e	2a	2cc
2B-	2r	2d	2g	2dd
=123	=123	=123	=123	=123
1c	1r	1e	4g	1g
.	.	.	4f	.
.	.	.	4e	.
.	.	.	4d	.
2A	2r	2f	2c	2a
=124	=124	=124	=124	=124
2G	1r	2g	2d	2b-
1F	.	1a	2f	1cc
.	2r	.	2f	.
=125	=125	=125	=125	=125
2G	1r	1g	2d	2b-
1D	.	.	1d	1a
.	2r	2f#	.	.
=126	=126	=126	=126	=126
1G	1r	1g	1d	1g
2r	2r	2r	2r	2r
=127	=127	=127	=127	=127
1r	2g	2G	2b-	2dd
.	2f	2d	2a	2dd
2r	2g	2G	2b-	2dd
=128	=128	=128	=128	=128
1r	1c	1g	1cc	1ee-
2r	2d	2r	2b-	2dd
=129	=129	=129	=129	=129
1r	2e	1r	2g	1cc
.	1f	.	1a	.
2r	.	2r	.	2f
=130	=130	=130	=130	=130
1r	2e	1r	2g	2g
.	2d	.	2f	2a
2r	2d	2r	2f	2a
=131	=131	=131	=131	=131
2d	1r	2f	2a	1r
2c	.	2e	2a	.
2d	2r	2f	2a	2r
=132	=132	=132	=132	=132
1G	1r	1g	1b-	2r
.	.	.	.	2dd
2A	2r	2e	2a	2cc
=133	=133	=133	=133	=133
2B-	1r	2d	2.g	2dd
1c	.	2.e	.	2g
.	.	.	4f	.
.	2r	.	2e	2a
.	.	4f	.	.
=134	=134	=134	=134	=134
2B-	2r	1g	2d	2b-
1A	2r	.	2e	1cc
.	2A	2f	2c	.
=135	=135	=135	=135	=135
2G	2B-	2g	4d	2b-
.	.	.	4e	.
1F	1c	2a	4f	4a
.	.	.	4g	4b-
.	.	2f	2a	4cc
.	.	.	.	4a
=136	=136	=136	=136	=136
2G	2B-	2d	1g	4b-
.	.	.	.	4cc
1D	1A	1d	.	1dd
.	.	.	2f#	.
=137	=137	=137	=137	=137
1.G	1.G	1.d	1.g	1.b
==	==	==	==	==
*-	*-	*-	*-	*-
!!!CDT: 1525/^1526/-1594/2/2
!!!OCY: Italia
!!!AGN: Mass (Paraphrase)
!!!AST: renaissance, vocal
!!!ASW: Antiphon
!!!PWK: Masses, Book 11
!!!RNB: Cadence finals: D
!!!YOR: Le Opere Complete, v. 28, p. 185
!!!YOO: Rome, Italy: Fratelli Scalera
!!!END: 1992//
!!!EED: John Miller
!!!YEC: Copyright 2000, John Miller
!!!YEN: United States of America
!!!YEM: Rights to all derivative electronic formats reserved.
!!!YEM: Refer to licensing agreement for further details.
!!!YEM: This file must be accompanied by the licensing agreement.
!!!YEM: A copy of the licensing agreement may be found at http://www.music-cog.ohio-state.edu/HumdrumDatabases/Palestrina/license.txt
!!!EMD: converted to Humdrum by Bret Aarden
